X:509
T: WER HAT LUST MIT MIR ZU ZIEHEN
N: E1766
O: Europa, Mitteleuropa, Deutschland, Schlesien; Brandenburg; Sachsen
R: Luegen - Lied, Schlaraffenland
M: 2/4
L: 1/16
K: F
 | F2G2A2B2 | c4f4 | d4c4 |
d2cBA2B2 | c4G4 | F4z4 |
F2G2A2B2 | c4f4 | d4c4 |
d2cBA2B2 | c4G4 | F4z4 |
E2F2G2A2 | B2A2G2F2 |
E2F2G2A2 | B4A4 | G8 |
F2G2A2B2 | c4f4 | d4c4 |
d2cBA2B2 | c4G4 | F4z4

@@@ Tune index: 5193
